X: 9508
T: Dark Plaintive Youth, The
R: barndance
M: 4/4
K: Dminor
A,C|DCDE F2 ED|C2 C2 GEDC|D2 DE F2 FA|GFED C2 A,C|
DCDE F2 ED|E2 AB c3e|dfed ABcA|GECE D2||
EF|GEGA cBcd|cBcd cA G2|A2 d2 dcde|dced cAAB|
cBcd (3cde dc|dcde f2 ed|dfed cedc|ABcA GECE|
DEFG ABcA|GECE D2||

